X: 1
T: Domhnall Na Graine
M: 6/8
L: 1/8
R: jig
K: Gmaj
|:fed cde | fed cAG | cAA A2G | cAA A2G |
fed cde | fed cAd | cAF G3 | cAF G3 :|
|:G3 AGA | cAA BGG | cAA A2G | cAA A2G |
G3 AGA | cAA BGd | cAF G3 | cAF G3 :|
|:a2f g2e | fed cAG | cAA A2G | cAA A2G |
a2f g2e | fed cAd | cAF G2A | cAF G3 :|
